www/assets/icons/flatware.svg

<svg xmlns="http://www.w3.org/2000/svg" width="24" height="24" viewBox="0 0 24 24" fill='currentColor'><path d="M16 7.08c0 1.77-.84 3.25-2 3.82V21h-2V10.9c-1.16-.57-2-2.05-2-3.82C10.01 4.83 11.35 3 13 3c1.66 0 3 1.83 3 4.08M17 3v18h2v-8h2V7c0-1.76-1.24-4-4-4M8.28 3c-.4 0-.72.32-.72.72V7h-.84V3.72C6.72 3.32 6.4 3 6 3s-.72.32-.72.72V7h-.84V3.72c0-.4-.32-.72-.72-.72S3 3.32 3 3.72V9c0 1.1.9 2 2 2v10h2V11c1.1 0 2-.9 2-2V3.72c0-.4-.32-.72-.72-.72"/></svg>

<svg width="24" height="24" viewBox="0 0 24 24" xmlns="http://www.w3.org/2000/svg" fill='currentColor'><path d="M16 7.08C16 8.85 15.16 10.33 14 10.9V21H12V10.9C10.84 10.33 10 8.85 10 7.08C10.01 4.83 11.35 3 13 3C14.66 3 16 4.83 16 7.08ZM17 3V21H19V13H21V7C21 5.24 19.76 3 17 3ZM8.28 3C7.88 3 7.56 3.32 7.56 3.72V7H6.72V3.72C6.72 3.32 6.4 3 6 3C5.6 3 5.28 3.32 5.28 3.72V7H4.44V3.72C4.44 3.32 4.12 3 3.72 3C3.32 3 3 3.32 3 3.72V9C3 10.1 3.9 11 5 11V21H7V11C8.1 11 9 10.1 9 9V3.72C9 3.32 8.68 3 8.28 3Z"/></svg>
